svgs/1F91C-1F3FB.svg

<svg xmlns="http://www.w3.org/2000/svg" xmlns:xlink="http://www.w3.org/1999/xlink" preserveAspectRatio="none" viewBox="0 0 72 72"><defs><path id="a" fill="#FADCBC" d="M114.3 37.9q-3.2-2.45-16.5-6.1-12.6-3.4-25.1-5.5-14.05-2.35-19.5-3.1-11.3-1.6-19.6-1.9-9.95-1.05-14.55-.8-8 .4-10.25 6-2.75 6.9-2.85 17.45 0 7.85 2.2 13.5 3.45 8.7 11.45 9.3 2.65-.05 6.55.7 4.15.8 5.95 1.75 1.65.85 6.15 4.85 4.4 3.85 4.75 4.65 3.9 5.75 7.5 9.45 4.4 4.6 9.4 7.5 4 2.3 12.3 7.1 7.55 3.8 15 4.85 3.3.45 7-4.7 3.85-5.35 2.5-9.8 11.15 3.5 15.6 2.25 2.65-.75 4.3-3 1.35-1.85 2.15-4.95 1.7-6.65 2.6-17.5.55-5.95.6-9.3.15-5.15-.45-9.3-1.35-8.9-7.2-13.4z"/><path id="b" fill="#DBA689" d="M96.05 65.85q.7.55 4.25 3.55 2.4 2.05 2.6 1.85 1.05-.75-1.15-3.65-2.25-2.95-7-6.5-5.6-4.15-11.15-6.25-2.85-1.05-6.35-.3-3.7.85-5.6 3.35-.5.65-.4 1.5.1.8.75 1.3.7.55 1.55.45.9-.1 1.25-.8 1.1-1.95 3.9-2.35 2.3-.4 4.3.35 4.55 1.7 8 3.85 1.7 1.1 5.05 3.65z"/><path id="c" fill="#DBA689" d="M87.65 49.2q.4-.35-1-.75-2.45-.75-6.5 1.15-4.25 1.95-6.8 5.3Q71 58 70.5 61.85t.95 7.95q2.25 6.35 14.35 15.1 2 1.4 4.15 2.7 3.55 2.2 4.05 2.6 1.85 1.35 2.7 2.9 1.75.75 7.45 2-2.8-4.3-9.2-8.95-6.15-4-6.8-4.5-11.1-7.95-12.95-13.2-1.3-3.6-.65-7.05.5-2.8 2-4.7 3.25-4.15 8.8-6.45 2.15-.9 2.3-1.05z"/></defs><use transform="scale(.5625)" xlink:href="#a"/><use transform="scale(.5625)" xlink:href="#b"/><use transform="scale(.5625)" xlink:href="#c"/></svg>

<svg xmlns="http://www.w3.org/2000/svg" version="1.1" xmlns:xlink="http://www.w3.org/1999/xlink" preserveAspectRatio="none" x="0px" y="0px" width="72px" height="72px" viewBox="0 0 72 72">
<defs>
<g id="Layer0_0_FILL">
<path fill="#FADCBC" stroke="none" d="
M 114.3 37.9
Q 111.1 35.45 97.8 31.8 85.2 28.4 72.7 26.3 58.65 23.95 53.2 23.2 41.9 21.6 33.6 21.3 23.65 20.25 19.05 20.5 11.05 20.9 8.8 26.5 6.05 33.4 5.95 43.95 5.95 51.8 8.15 57.45 11.6 66.15 19.6 66.75 22.25 66.7 26.15 67.45 30.3 68.25 32.1 69.2 33.75 70.05 38.25 74.05 42.65 77.9 43 78.7 46.9 84.45 50.5 88.15 54.9 92.75 59.9 95.65 63.9 97.95 72.2 102.75 79.75 106.55 87.2 107.6 90.5 108.05 94.2 102.9 98.05 97.55 96.7 93.1 107.85 96.6 112.3 95.35 114.95 94.6 116.6 92.35 117.95 90.5 118.75 87.4 120.45 80.75 121.35 69.9 121.9 63.95 121.95 60.6 122.1 55.45 121.5 51.3 120.15 42.4 114.3 37.9 Z"/>
</g>

<g id="Layer0_1_FILL">
<path fill="#DBA689" stroke="none" d="
M 96.05 65.85
Q 96.75 66.4 100.3 69.4 102.7 71.45 102.9 71.25 103.95 70.5 101.75 67.6 99.5 64.65 94.75 61.1 89.15 56.95 83.6 54.85 80.75 53.8 77.25 54.55 73.55 55.4 71.65 57.9 71.15 58.55 71.25 59.4 71.35 60.2 72 60.7 72.7 61.25 73.55 61.15 74.45 61.05 74.8 60.35 75.9 58.4 78.7 58 81 57.6 83 58.35 87.55 60.05 91 62.2 92.7 63.3 96.05 65.85 Z"/>
</g>

<g id="Layer0_2_FILL">
<path fill="#DBA689" stroke="none" d="
M 87.65 49.2
Q 88.05 48.85 86.65 48.45 84.2 47.7 80.15 49.6 75.9 51.55 73.35 54.9 71 58 70.5 61.85 70 65.7 71.45 69.8 73.7 76.15 85.8 84.9 87.8 86.3 89.95 87.6 93.5 89.8 94 90.2 95.85 91.55 96.7 93.1 98.45 93.85 104.15 95.1 101.35 90.8 94.95 86.15 88.8 82.15 88.15 81.65 77.05 73.7 75.2 68.45 73.9 64.85 74.55 61.4 75.05 58.6 76.55 56.7 79.8 52.55 85.35 50.25 87.5 49.35 87.65 49.2 Z"/>
</g>
</defs>

<g id="Layer_1">
<g transform="matrix( 0.5625, 0, 0, 0.5625, 0,0) ">
<use xlink:href="#Layer0_0_FILL"/>
</g>

<g transform="matrix( 0.5625, 0, 0, 0.5625, 0,0) ">
<use xlink:href="#Layer0_1_FILL"/>
</g>

<g transform="matrix( 0.5625, 0, 0, 0.5625, 0,0) ">
<use xlink:href="#Layer0_2_FILL"/>
</g>
</g>
</svg>
